X: 60
T: No_155_Mīde'_Song.krn
%%abc-version 2.0
%%abcx-abcm2ps-target-version 5.9.1 (29 Sep 2008)
%%abc-creator hum2abc beta
%%abcx-conversion-date 2020/08/10 18:54:57
%%gracespace 0 6 6
%%humdrum-veritas 2228073894
%%humdrum-veritas-data 646773551
%%linebreak <none>
%%barnumbers 0
L: 1/8
M: 2/4
%%staves {1 2}
V: 1 clef=bass
V: 2 clef=bass
K: G
[V:1] DD [I:setbarnb 1]| 
[V:2] z2 | 
[V:1] D3D | 
[V:2] G,,G,, G,,G,, | 
[V:1] D4 | 
[V:2] z4 | 
[V:1] D4 | 
[V:2] z4 | 
[V:1] D2DB, | 
[V:2] z4 | 
[V:1] D4- | 
[V:2] z4 | 
[V:1] D2DD | 
[V:2] z4 | 
[V:1] B,3B, | 
[V:2] z4 | 
[V:1] G,4 | 
[V:2] z4 | 
[V:1] G,4 | 
[V:2] z4 | 
[V:1] G,4- | 
[V:2] z4 | 
[V:1] G,2G,E, | 
[V:2] z4 | 
[V:1] G,4 | 
[V:2] z4 | 
[V:1] G,G, DD | 
[V:2] z4 | 
[V:1] B,3G, | 
[V:2] z4 | 
[V:1] G,4 | 
[V:2] z4 | 
[V:1] B,2B,G, | 
[V:2] z4 | 
[V:1] G,3G, | 
[V:2] z4 | 
[V:1] G,2G,G, | 
[V:2] z4 | 
[V:1] D,3D, | 
[V:2] z4 | 
[V:1] D,4 | 
[V:2] z4 | 
[V:1] D,4 | 
[V:2] z4 | 
[V:1] D,2D,B,, | 
[V:2] z4 | 
[V:1] D,2D,D, | 
[V:2] z4 | 
[V:1] B,,3G,, | 
[V:2] z4 | 
[V:1] G,,4 | 
[V:2] z4 | 
[V:1] B,,2G,,G,, | 
[V:2] z4 | 
[V:1] G,,4 | 
[V:2] z4 | 
[V:1] G,,2z2 |]  
[V:2] z4 |]  


